X:075 
T:Groves of Gneeveguillia (polka) 
T:Top of Maol
B:CRE3.063 (GarrÃÂÃÂÃÂÃÂ¡in GhnÃÂÃÂÃÂÃÂ­omh go Leith)
F:file ID: cre.3/075groves
R:polka
Q:120
M:2/4
L:1/8
K:Am
E|AA/G/ AB/d/|ed BA|GG/^F/ GA|Bd B/A/G|
A2 AB/d/|ed Bd|e/^f/g/e/ dB|A2 A:|
|:B/d/|ea ag/a/|ba g>g|e>^f ga|ge ed|
ea ag/a/|ba g2|e/^f/g/e/ dB|A2 A:|

%%%

